telier/img/about-youtube.svg

<svg width="16" height="12" viewBox="0 0 16 12" fill="none" xmlns="http://www.w3.org/2000/svg">
<path d="M15.0581 2.30096C14.8669 1.63189 14.389 1.15399 13.7199 0.962829C12.573 0.676087 7.69833 0.676086 7.69833 0.676086C7.69833 0.676086 2.91931 0.676087 1.67676 0.962829C1.00769 1.15399 0.529781 1.63189 0.33862 2.30096C0.147458 3.54351 0.147461 6.02861 0.147461 6.02861C0.147461 6.02861 0.147464 8.51371 0.434206 9.75626C0.625368 10.4253 1.10327 10.9032 1.77233 11.0944C2.9193 11.3811 7.79392 11.3811 7.79392 11.3811C7.79392 11.3811 12.5729 11.3811 13.8155 11.0944C14.4846 10.9032 14.9625 10.4253 15.1536 9.75626C15.4404 8.51371 15.4404 6.02861 15.4404 6.02861C15.4404 6.02861 15.4404 3.54351 15.0581 2.30096ZM6.26462 8.32255V3.73467L10.279 6.02861L6.26462 8.32255Z" fill="#0047FF"/>
</svg>

<svg width="16" height="12" fill="none" xmlns="http://www.w3.org/2000/svg"><path d="M15.058 2.301A1.893 1.893 0 0013.72.963C12.573.676 7.698.676 7.698.676s-4.779 0-6.021.287A1.891 1.891 0 00.339 2.3C.147 3.544.147 6.029.147 6.029s0 2.485.287 3.727c.191.67.67 1.147 1.338 1.338 1.147.287 6.022.287 6.022.287s4.779 0 6.022-.287a1.893 1.893 0 001.338-1.338c.286-1.242.286-3.727.286-3.727s0-2.485-.382-3.728zM6.265 8.323V3.735l4.014 2.294-4.014 2.294z" fill="#0047FF"/></svg>
